svg/fluentui-system-icons/ic_fluent_panel_right_48_regular.svg

<svg width="48" height="48" viewBox="0 0 48 48" fill="none" xmlns="http://www.w3.org/2000/svg">
<path d="M37.75 7C41.2018 7 44 9.79822 44 13.25V34.75C44 38.2018 41.2018 41 37.75 41H10.25C6.79822 41 4 38.2018 4 34.75V13.25C4 9.79822 6.79822 7 10.25 7H37.75ZM41.5 13.25C41.5 11.1789 39.8211 9.5 37.75 9.5H32.25V38.5H37.75C39.8211 38.5 41.5 36.8211 41.5 34.75V13.25ZM29.75 38.5V9.5H10.25C8.17893 9.5 6.5 11.1789 6.5 13.25V34.75C6.5 36.8211 8.17893 38.5 10.25 38.5H29.75Z" fill="#212121"/>
</svg>

<svg xmlns="http://www.w3.org/2000/svg" width="48" height="48"><path d="M37.75 7A6.25 6.25 0 0 1 44 13.25v21.5A6.25 6.25 0 0 1 37.75 41h-27.5A6.25 6.25 0 0 1 4 34.75v-21.5A6.25 6.25 0 0 1 10.25 7h27.5Zm3.75 6.25a3.75 3.75 0 0 0-3.75-3.75h-5.5v29h5.5a3.75 3.75 0 0 0 3.75-3.75v-21.5ZM29.75 38.5v-29h-19.5a3.75 3.75 0 0 0-3.75 3.75v21.5a3.75 3.75 0 0 0 3.75 3.75h19.5Z"/></svg>
